%
;s003_01_104_03_179.984_038_boxBottom.ngc
;
; Copyright © 1988-2021 by Abbott Analytical Products. All Rights Reserved.
;
; This gcode porgram describes the surface operation for the bottom
; of the puzzleBox 
; 210412_tr s003_01_> Mill only first module: cylinder and drill
;             > Remove outline testdepth
; 210412_tr 03> Inserted new PocketShapeCylinder toolpath zigzagoffset
;             > Updated Drill operation per lid and added drillDepth
;             > Added msg to point slot channel operations for future abort
; 210405_tr 02> Added call to subroutine o100
; 210403_tr 01> Initial conversion from raw FeedCAD _00_ version
;             > Added % two places
;             > Replaced values with safego, xyVel, zVel, tabVel and testdepth
;             > Adjust tooltable T value to SIM/AST tool table
;                   T3 to T21 dremel scribe engraver 
;                   T10  to T18 1/4 router bit longshank 




#<safego>    =  0.2000
#<xyVel>     =  25; 72; 36.0000  ;15.0000
#<zVel>      =  3.9000
#<tabVel>    =  9.4500
#<drillDepth>=-0.2000 ; for bottom



(Exported by FreeCAD)
(Post Processor: linuxcnc_post)
(Output Time:2021-04-02 22:09:23.507820)
(begin preamble)
G40G49G80G61G54G90G20F30S1000 ; 
G20

o100 sub
  G0 Z0.2   ;Z#<safego>
  G53 G0 X0 Y0 Z0 (rapid move to machine home)
  G04 P5.0	; wait for 3.0 seconds
 (MSG, Check Outline Dimensions.)
 (MSG, Decide to abort or continue.)
 (MSG, Waiting for you to clear M108 Image)        
  M108
  G04 P5.0	; wait for 5.0 seconds
  G0  Z0.2   ;Z#<safego>
(End of Depth Cut Check)
  o100 endsub
;invoked by o100 call (call the subroutine here)




(begin operation: T18: 1/4 Dia Longshaft)
(machine: not set, in/min)
(T18: 1/4 Dia Longshaft)
M6 T18
M3 S0
(finish operation: T18: 1/4 Dia Longshaft)


;*** Begin Cylinder Insert

(begin operation: Pocket_Shape_Cylinder)
(machine: not set, in/min)
(Pocket_Shape_Cylinder)
G0 Z#<safego>
G0 X4.5133 Y0.9778
G1 X4.5133 Y0.9778 Z-0.0500 F#<zVel>
G2 X3.6904 Y-1.3741 Z-0.0500 I-0.9778 J-0.9778 F#<xyVel>
G2 X3.3807 Y1.3741 Z-0.0500 I-0.1548 J1.3741 F#<xyVel>
G2 X4.5133 Y0.9778 Z-0.0500 I0.1548 J-1.3741 F#<xyVel>
G0 X4.5133 Y0.9778 Z#<safego>
G0 X3.1990 Y1.3326 Z#<safego>
G0 X3.1990 Y1.3326 Z0.1500
G1 X3.1990 Y1.3326 Z-0.0500 F#<zVel>
G3 X2.2029 Y0.3365 Z-0.0500 I0.2964 J-1.2925 F#<xyVel>
G1 X3.1990 Y1.3326 Z-0.0500 F#<xyVel>
G2 X3.5700 Y1.3741 Z-0.0500 I0.2763 J-0.7920 F#<xyVel>
G1 X2.1615 Y-0.0345 Z-0.0500 F#<xyVel>
G3 X2.2003 Y-0.3251 Z-0.0500 I0.6561 J-0.0602 F#<xyVel>
G1 X3.8606 Y1.3352 Z-0.0500 F#<xyVel>
G2 X4.1056 Y1.2506 Z-0.0500 I-0.0629 J-0.5788 F#<xyVel>
G1 X2.2849 Y-0.5700 Z-0.0500 F#<xyVel>
G3 X2.4020 Y-0.7825 Z-0.0500 I0.5239 J0.1503 F#<xyVel>
G1 X4.3180 Y1.1335 Z-0.0500 F#<xyVel>
G1 X4.5013 Y0.9873 Z-0.0500 F#<xyVel>
G1 X2.5482 Y-0.9658 Z-0.0500 F#<xyVel>
G3 X2.7291 Y-1.1144 Z-0.0500 I0.4160 J0.3220 F#<xyVel>
G1 X4.6499 Y0.8064 Z-0.0500 F#<xyVel>
G2 X4.7721 Y0.5991 Z-0.0500 I-0.3931 J-0.3713 F#<xyVel>
G1 X2.9364 Y-1.2366 Z-0.0500 F#<xyVel>
G3 X3.1753 Y-1.3272 Z-0.0500 I0.3179 J0.4781 F#<xyVel>
G1 X4.8627 Y0.3602 Z-0.0500 F#<xyVel>
G2 X4.9096 Y0.0776 Z-0.0500 I-0.5957 J-0.2440 F#<xyVel>
G1 X3.4580 Y-1.3741 Z-0.0500 F#<xyVel>
G3 X3.8162 Y-1.3453 Z-0.0500 I0.1162 J0.7991 F#<xyVel>
G1 X4.8809 Y-0.2807 Z-0.0500 F#<xyVel>
G2 X4.5133 Y-0.9778 Z-0.0500 I-1.1799 J0.1767 F#<xyVel>
G1 X4.5133 Y-0.9778 Z-0.1000 F#<zVel>
G3 X4.8809 Y-0.2807 Z-0.1000 I-0.8123 J0.8738 F#<xyVel>
G1 X3.8162 Y-1.3453 Z-0.1000 F#<xyVel>
G2 X3.4580 Y-1.3741 Z-0.1000 I-0.2420 J0.7704 F#<xyVel>
G1 X4.9096 Y0.0776 Z-0.1000 F#<xyVel>
G3 X4.8627 Y0.3602 Z-0.1000 I-0.6426 J0.0386 F#<xyVel>
G1 X3.1753 Y-1.3272 Z-0.1000 F#<xyVel>
G2 X2.9364 Y-1.2366 Z-0.1000 I0.0790 J0.5687 F#<xyVel>
G1 X4.7721 Y0.5991 Z-0.1000 F#<xyVel>
G3 X4.6499 Y0.8064 Z-0.1000 I-0.5153 J-0.1640 F#<xyVel>
G1 X2.7291 Y-1.1144 Z-0.1000 F#<xyVel>
G2 X2.5482 Y-0.9658 Z-0.1000 I0.2351 J0.4706 F#<xyVel>
G1 X4.5013 Y0.9873 Z-0.1000 F#<xyVel>
G1 X4.3180 Y1.1335 Z-0.1000 F#<xyVel>
G1 X2.4020 Y-0.7825 Z-0.1000 F#<xyVel>
G2 X2.2849 Y-0.5700 Z-0.1000 I0.4068 J0.3627 F#<xyVel>
G1 X4.1056 Y1.2506 Z-0.1000 F#<xyVel>
G3 X3.8606 Y1.3352 Z-0.1000 I-0.3078 J-0.4942 F#<xyVel>
G1 X2.2003 Y-0.3251 Z-0.1000 F#<xyVel>
G2 X2.1615 Y-0.0345 Z-0.1000 I0.6173 J0.2305 F#<xyVel>
G1 X3.5700 Y1.3741 Z-0.1000 F#<xyVel>
G3 X3.1990 Y1.3326 Z-0.1000 I-0.0946 J-0.8334 F#<xyVel>
G1 X2.2029 Y0.3365 Z-0.1000 F#<xyVel>
G2 X3.1990 Y1.3326 Z-0.1000 I1.2925 J-0.2964 F#<xyVel>
G0 X3.1990 Y1.3326 Z#<safego>
G0 X3.1970 Y1.3407 Z#<safego>
G0 X3.1970 Y1.3407 Z0.1000
G1 X3.1970 Y1.3407 Z-0.1000 F#<zVel>
G2 X3.3807 Y1.3741 Z-0.1000 I0.3385 J-1.3407 F#<xyVel>
G2 X3.6904 Y-1.3741 Z-0.1000 I0.1548 J-1.3741 F#<xyVel>
G2 X3.1970 Y1.3407 Z-0.1000 I-0.1548 J1.3741 F#<xyVel>
G1 X3.1970 Y1.3407 Z-0.1500 F#<zVel>
G2 X3.3807 Y1.3741 Z-0.1500 I0.3385 J-1.3407 F#<xyVel>
G2 X3.6904 Y-1.3741 Z-0.1500 I0.1548 J-1.3741 F#<xyVel>
G2 X3.1970 Y1.3407 Z-0.1500 I-0.1548 J1.3741 F#<xyVel>
G0 X3.1970 Y1.3407 Z#<safego>
G0 X3.1990 Y1.3326 Z#<safego>
G0 X3.1990 Y1.3326 Z0.0500
G1 X3.1990 Y1.3326 Z-0.1500 F#<zVel>
G3 X2.2029 Y0.3365 Z-0.1500 I0.2964 J-1.2925 F#<xyVel>
G1 X3.1990 Y1.3326 Z-0.1500 F#<xyVel>
G2 X3.5700 Y1.3741 Z-0.1500 I0.2763 J-0.7920 F#<xyVel>
G1 X2.1615 Y-0.0345 Z-0.1500 F#<xyVel>
G3 X2.2003 Y-0.3251 Z-0.1500 I0.6561 J-0.0602 F#<xyVel>
G1 X3.8606 Y1.3352 Z-0.1500 F#<xyVel>
G2 X4.1056 Y1.2506 Z-0.1500 I-0.0629 J-0.5788 F#<xyVel>
G1 X2.2849 Y-0.5700 Z-0.1500 F#<xyVel>
G3 X2.4020 Y-0.7825 Z-0.1500 I0.5239 J0.1503 F#<xyVel>
G1 X4.3180 Y1.1335 Z-0.1500 F#<xyVel>
G1 X4.5013 Y0.9873 Z-0.1500 F#<xyVel>
G1 X2.5482 Y-0.9658 Z-0.1500 F#<xyVel>
G3 X2.7291 Y-1.1144 Z-0.1500 I0.4160 J0.3220 F#<xyVel>
G1 X4.6499 Y0.8064 Z-0.1500 F#<xyVel>
G2 X4.7721 Y0.5991 Z-0.1500 I-0.3931 J-0.3713 F#<xyVel>
G1 X2.9364 Y-1.2366 Z-0.1500 F#<xyVel>
G3 X3.1753 Y-1.3272 Z-0.1500 I0.3179 J0.4781 F#<xyVel>
G1 X4.8627 Y0.3602 Z-0.1500 F#<xyVel>
G2 X4.9096 Y0.0776 Z-0.1500 I-0.5957 J-0.2440 F#<xyVel>
G1 X3.4580 Y-1.3741 Z-0.1500 F#<xyVel>
G3 X3.8162 Y-1.3453 Z-0.1500 I0.1162 J0.7991 F#<xyVel>
G1 X4.8809 Y-0.2807 Z-0.1500 F#<xyVel>
G2 X4.5133 Y-0.9778 Z-0.1500 I-1.1799 J0.1767 F#<xyVel>
G1 X4.5133 Y-0.9778 Z-0.2000 F#<zVel>
G3 X4.8809 Y-0.2807 Z-0.2000 I-0.8123 J0.8738 F#<xyVel>
G1 X3.8162 Y-1.3453 Z-0.2000 F#<xyVel>
G2 X3.4580 Y-1.3741 Z-0.2000 I-0.2420 J0.7704 F#<xyVel>
G1 X4.9096 Y0.0776 Z-0.2000 F#<xyVel>
G3 X4.8627 Y0.3602 Z-0.2000 I-0.6426 J0.0386 F#<xyVel>
G1 X3.1753 Y-1.3272 Z-0.2000 F#<xyVel>
G2 X2.9364 Y-1.2366 Z-0.2000 I0.0790 J0.5687 F#<xyVel>
G1 X4.7721 Y0.5991 Z-0.2000 F#<xyVel>
G3 X4.6499 Y0.8064 Z-0.2000 I-0.5153 J-0.1640 F#<xyVel>
G1 X2.7291 Y-1.1144 Z-0.2000 F#<xyVel>
G2 X2.5482 Y-0.9658 Z-0.2000 I0.2351 J0.4706 F#<xyVel>
G1 X4.5013 Y0.9873 Z-0.2000 F#<xyVel>
G1 X4.3180 Y1.1335 Z-0.2000 F#<xyVel>
G1 X2.4020 Y-0.7825 Z-0.2000 F#<xyVel>
G2 X2.2849 Y-0.5700 Z-0.2000 I0.4068 J0.3627 F#<xyVel>
G1 X4.1056 Y1.2506 Z-0.2000 F#<xyVel>
G3 X3.8606 Y1.3352 Z-0.2000 I-0.3078 J-0.4942 F#<xyVel>
G1 X2.2003 Y-0.3251 Z-0.2000 F#<xyVel>
G2 X2.1615 Y-0.0345 Z-0.2000 I0.6173 J0.2305 F#<xyVel>
G1 X3.5700 Y1.3741 Z-0.2000 F#<xyVel>
G3 X3.1990 Y1.3326 Z-0.2000 I-0.0946 J-0.8334 F#<xyVel>
G1 X2.2029 Y0.3365 Z-0.2000 F#<xyVel>
G2 X3.1990 Y1.3326 Z-0.2000 I1.2925 J-0.2964 F#<xyVel>
G0 X3.1990 Y1.3326 Z#<safego>
G0 X3.1970 Y1.3407 Z#<safego>
G0 X3.1970 Y1.3407 Z0.0000
G1 X3.1970 Y1.3407 Z-0.2000 F#<zVel>
G2 X3.3807 Y1.3741 Z-0.2000 I0.3385 J-1.3407 F#<xyVel>
G2 X3.6904 Y-1.3741 Z-0.2000 I0.1548 J-1.3741 F#<xyVel>
G2 X3.1970 Y1.3407 Z-0.2000 I-0.1548 J1.3741 F#<xyVel>
G1 X3.1970 Y1.3407 Z-0.2500 F#<zVel>
G2 X3.3807 Y1.3741 Z-0.2500 I0.3385 J-1.3407 F#<xyVel>
G2 X3.6904 Y-1.3741 Z-0.2500 I0.1548 J-1.3741 F#<xyVel>
G2 X3.1970 Y1.3407 Z-0.2500 I-0.1548 J1.3741 F#<xyVel>
G0 X3.1970 Y1.3407 Z#<safego>
G0 X3.1990 Y1.3326 Z#<safego>
G0 X3.1990 Y1.3326 Z-0.0500
G1 X3.1990 Y1.3326 Z-0.2500 F#<zVel>
G3 X2.2029 Y0.3365 Z-0.2500 I0.2964 J-1.2925 F#<xyVel>
G1 X3.1990 Y1.3326 Z-0.2500 F#<xyVel>
G2 X3.5700 Y1.3741 Z-0.2500 I0.2763 J-0.7920 F#<xyVel>
G1 X2.1615 Y-0.0345 Z-0.2500 F#<xyVel>
G3 X2.2003 Y-0.3251 Z-0.2500 I0.6561 J-0.0602 F#<xyVel>
G1 X3.8606 Y1.3352 Z-0.2500 F#<xyVel>
G2 X4.1056 Y1.2506 Z-0.2500 I-0.0629 J-0.5788 F#<xyVel>
G1 X2.2849 Y-0.5700 Z-0.2500 F#<xyVel>
G3 X2.4020 Y-0.7825 Z-0.2500 I0.5239 J0.1503 F#<xyVel>
G1 X4.3180 Y1.1335 Z-0.2500 F#<xyVel>
G1 X4.5013 Y0.9873 Z-0.2500 F#<xyVel>
G1 X2.5482 Y-0.9658 Z-0.2500 F#<xyVel>
G3 X2.7291 Y-1.1144 Z-0.2500 I0.4160 J0.3220 F#<xyVel>
G1 X4.6499 Y0.8064 Z-0.2500 F#<xyVel>
G2 X4.7721 Y0.5991 Z-0.2500 I-0.3931 J-0.3713 F#<xyVel>
G1 X2.9364 Y-1.2366 Z-0.2500 F#<xyVel>
G3 X3.1753 Y-1.3272 Z-0.2500 I0.3179 J0.4781 F#<xyVel>
G1 X4.8627 Y0.3602 Z-0.2500 F#<xyVel>
G2 X4.9096 Y0.0776 Z-0.2500 I-0.5957 J-0.2440 F#<xyVel>
G1 X3.4580 Y-1.3741 Z-0.2500 F#<xyVel>
G3 X3.8162 Y-1.3453 Z-0.2500 I0.1162 J0.7991 F#<xyVel>
G1 X4.8809 Y-0.2807 Z-0.2500 F#<xyVel>
G2 X4.5133 Y-0.9778 Z-0.2500 I-1.1799 J0.1767 F#<xyVel>
G1 X4.5133 Y-0.9778 Z-0.3000 F#<zVel>
G3 X4.8809 Y-0.2807 Z-0.3000 I-0.8123 J0.8738 F#<xyVel>
G1 X3.8162 Y-1.3453 Z-0.3000 F#<xyVel>
G2 X3.4580 Y-1.3741 Z-0.3000 I-0.2420 J0.7704 F#<xyVel>
G1 X4.9096 Y0.0776 Z-0.3000 F#<xyVel>
G3 X4.8627 Y0.3602 Z-0.3000 I-0.6426 J0.0386 F#<xyVel>
G1 X3.1753 Y-1.3272 Z-0.3000 F#<xyVel>
G2 X2.9364 Y-1.2366 Z-0.3000 I0.0790 J0.5687 F#<xyVel>
G1 X4.7721 Y0.5991 Z-0.3000 F#<xyVel>
G3 X4.6499 Y0.8064 Z-0.3000 I-0.5153 J-0.1640 F#<xyVel>
G1 X2.7291 Y-1.1144 Z-0.3000 F#<xyVel>
G2 X2.5482 Y-0.9658 Z-0.3000 I0.2351 J0.4706 F#<xyVel>
G1 X4.5013 Y0.9873 Z-0.3000 F#<xyVel>
G1 X4.3180 Y1.1335 Z-0.3000 F#<xyVel>
G1 X2.4020 Y-0.7825 Z-0.3000 F#<xyVel>
G2 X2.2849 Y-0.5700 Z-0.3000 I0.4068 J0.3627 F#<xyVel>
G1 X4.1056 Y1.2506 Z-0.3000 F#<xyVel>
G3 X3.8606 Y1.3352 Z-0.3000 I-0.3078 J-0.4942 F#<xyVel>
G1 X2.2003 Y-0.3251 Z-0.3000 F#<xyVel>
G2 X2.1615 Y-0.0345 Z-0.3000 I0.6173 J0.2305 F#<xyVel>
G1 X3.5700 Y1.3741 Z-0.3000 F#<xyVel>
G3 X3.1990 Y1.3326 Z-0.3000 I-0.0946 J-0.8334 F#<xyVel>
G1 X2.2029 Y0.3365 Z-0.3000 F#<xyVel>
G2 X3.1990 Y1.3326 Z-0.3000 I1.2925 J-0.2964 F#<xyVel>
G0 X3.1990 Y1.3326 Z#<safego>
G0 X3.1970 Y1.3407 Z#<safego>
G0 X3.1970 Y1.3407 Z-0.1000
G1 X3.1970 Y1.3407 Z-0.3000 F#<zVel>
G2 X3.3807 Y1.3741 Z-0.3000 I0.3385 J-1.3407 F#<xyVel>
G2 X3.6904 Y-1.3741 Z-0.3000 I0.1548 J-1.3741 F#<xyVel>
G2 X3.1970 Y1.3407 Z-0.3000 I-0.1548 J1.3741 F#<xyVel>
G1 X3.1970 Y1.3407 Z-0.3500 F#<zVel>
G2 X3.3807 Y1.3741 Z-0.3500 I0.3385 J-1.3407 F#<xyVel>
G2 X3.6904 Y-1.3741 Z-0.3500 I0.1548 J-1.3741 F#<xyVel>
G2 X3.1970 Y1.3407 Z-0.3500 I-0.1548 J1.3741 F#<xyVel>
G0 X3.1970 Y1.3407 Z#<safego>
G0 X3.1990 Y1.3326 Z#<safego>
G0 X3.1990 Y1.3326 Z-0.1500
G1 X3.1990 Y1.3326 Z-0.3500 F#<zVel>
G3 X2.2029 Y0.3365 Z-0.3500 I0.2964 J-1.2925 F#<xyVel>
G1 X3.1990 Y1.3326 Z-0.3500 F#<xyVel>
G2 X3.5700 Y1.3741 Z-0.3500 I0.2763 J-0.7920 F#<xyVel>
G1 X2.1615 Y-0.0345 Z-0.3500 F#<xyVel>
G3 X2.2003 Y-0.3251 Z-0.3500 I0.6561 J-0.0602 F#<xyVel>
G1 X3.8606 Y1.3352 Z-0.3500 F#<xyVel>
G2 X4.1056 Y1.2506 Z-0.3500 I-0.0629 J-0.5788 F#<xyVel>
G1 X2.2849 Y-0.5700 Z-0.3500 F#<xyVel>
G3 X2.4020 Y-0.7825 Z-0.3500 I0.5239 J0.1503 F#<xyVel>
G1 X4.3180 Y1.1335 Z-0.3500 F#<xyVel>
G1 X4.5013 Y0.9873 Z-0.3500 F#<xyVel>
G1 X2.5482 Y-0.9658 Z-0.3500 F#<xyVel>
G3 X2.7291 Y-1.1144 Z-0.3500 I0.4160 J0.3220 F#<xyVel>
G1 X4.6499 Y0.8064 Z-0.3500 F#<xyVel>
G2 X4.7721 Y0.5991 Z-0.3500 I-0.3931 J-0.3713 F#<xyVel>
G1 X2.9364 Y-1.2366 Z-0.3500 F#<xyVel>
G3 X3.1753 Y-1.3272 Z-0.3500 I0.3179 J0.4781 F#<xyVel>
G1 X4.8627 Y0.3602 Z-0.3500 F#<xyVel>
G2 X4.9096 Y0.0776 Z-0.3500 I-0.5957 J-0.2440 F#<xyVel>
G1 X3.4580 Y-1.3741 Z-0.3500 F#<xyVel>
G3 X3.8162 Y-1.3453 Z-0.3500 I0.1162 J0.7991 F#<xyVel>
G1 X4.8809 Y-0.2807 Z-0.3500 F#<xyVel>
G2 X4.5133 Y-0.9778 Z-0.3500 I-1.1799 J0.1767 F#<xyVel>
G1 X4.5133 Y-0.9778 Z-0.4000 F#<zVel>
G3 X4.8809 Y-0.2807 Z-0.4000 I-0.8123 J0.8738 F#<xyVel>
G1 X3.8162 Y-1.3453 Z-0.4000 F#<xyVel>
G2 X3.4580 Y-1.3741 Z-0.4000 I-0.2420 J0.7704 F#<xyVel>
G1 X4.9096 Y0.0776 Z-0.4000 F#<xyVel>
G3 X4.8627 Y0.3602 Z-0.4000 I-0.6426 J0.0386 F#<xyVel>
G1 X3.1753 Y-1.3272 Z-0.4000 F#<xyVel>
G2 X2.9364 Y-1.2366 Z-0.4000 I0.0790 J0.5687 F#<xyVel>
G1 X4.7721 Y0.5991 Z-0.4000 F#<xyVel>
G3 X4.6499 Y0.8064 Z-0.4000 I-0.5153 J-0.1640 F#<xyVel>
G1 X2.7291 Y-1.1144 Z-0.4000 F#<xyVel>
G2 X2.5482 Y-0.9658 Z-0.4000 I0.2351 J0.4706 F#<xyVel>
G1 X4.5013 Y0.9873 Z-0.4000 F#<xyVel>
G1 X4.3180 Y1.1335 Z-0.4000 F#<xyVel>
G1 X2.4020 Y-0.7825 Z-0.4000 F#<xyVel>
G2 X2.2849 Y-0.5700 Z-0.4000 I0.4068 J0.3627 F#<xyVel>
G1 X4.1056 Y1.2506 Z-0.4000 F#<xyVel>
G3 X3.8606 Y1.3352 Z-0.4000 I-0.3078 J-0.4942 F#<xyVel>
G1 X2.2003 Y-0.3251 Z-0.4000 F#<xyVel>
G2 X2.1615 Y-0.0345 Z-0.4000 I0.6173 J0.2305 F#<xyVel>
G1 X3.5700 Y1.3741 Z-0.4000 F#<xyVel>
G3 X3.1990 Y1.3326 Z-0.4000 I-0.0946 J-0.8334 F#<xyVel>
G1 X2.2029 Y0.3365 Z-0.4000 F#<xyVel>
G2 X3.1990 Y1.3326 Z-0.4000 I1.2925 J-0.2964 F#<xyVel>
G0 X3.1990 Y1.3326 Z#<safego>
G0 X3.1970 Y1.3407 Z#<safego>
G0 X3.1970 Y1.3407 Z-0.2000
G1 X3.1970 Y1.3407 Z-0.4000 F#<zVel>
G2 X3.3807 Y1.3741 Z-0.4000 I0.3385 J-1.3407 F#<xyVel>
G2 X3.6904 Y-1.3741 Z-0.4000 I0.1548 J-1.3741 F#<xyVel>
G2 X3.1970 Y1.3407 Z-0.4000 I-0.1548 J1.3741 F#<xyVel>
G1 X3.1970 Y1.3407 Z-0.4500 F#<zVel>
G2 X3.3807 Y1.3741 Z-0.4500 I0.3385 J-1.3407 F#<xyVel>
G2 X3.6904 Y-1.3741 Z-0.4500 I0.1548 J-1.3741 F#<xyVel>
G2 X3.1970 Y1.3407 Z-0.4500 I-0.1548 J1.3741 F#<xyVel>
G0 X3.1970 Y1.3407 Z#<safego>
G0 X3.1990 Y1.3326 Z#<safego>
G0 X3.1990 Y1.3326 Z-0.2500
G1 X3.1990 Y1.3326 Z-0.4500 F#<zVel>
G3 X2.2029 Y0.3365 Z-0.4500 I0.2964 J-1.2925 F#<xyVel>
G1 X3.1990 Y1.3326 Z-0.4500 F#<xyVel>
G2 X3.5700 Y1.3741 Z-0.4500 I0.2763 J-0.7920 F#<xyVel>
G1 X2.1615 Y-0.0345 Z-0.4500 F#<xyVel>
G3 X2.2003 Y-0.3251 Z-0.4500 I0.6561 J-0.0602 F#<xyVel>
G1 X3.8606 Y1.3352 Z-0.4500 F#<xyVel>
G2 X4.1056 Y1.2506 Z-0.4500 I-0.0629 J-0.5788 F#<xyVel>
G1 X2.2849 Y-0.5700 Z-0.4500 F#<xyVel>
G3 X2.4020 Y-0.7825 Z-0.4500 I0.5239 J0.1503 F#<xyVel>
G1 X4.3180 Y1.1335 Z-0.4500 F#<xyVel>
G1 X4.5013 Y0.9873 Z-0.4500 F#<xyVel>
G1 X2.5482 Y-0.9658 Z-0.4500 F#<xyVel>
G3 X2.7291 Y-1.1144 Z-0.4500 I0.4160 J0.3220 F#<xyVel>
G1 X4.6499 Y0.8064 Z-0.4500 F#<xyVel>
G2 X4.7721 Y0.5991 Z-0.4500 I-0.3931 J-0.3713 F#<xyVel>
G1 X2.9364 Y-1.2366 Z-0.4500 F#<xyVel>
G3 X3.1753 Y-1.3272 Z-0.4500 I0.3179 J0.4781 F#<xyVel>
G1 X4.8627 Y0.3602 Z-0.4500 F#<xyVel>
G2 X4.9096 Y0.0776 Z-0.4500 I-0.5957 J-0.2440 F#<xyVel>
G1 X3.4580 Y-1.3741 Z-0.4500 F#<xyVel>
G3 X3.8162 Y-1.3453 Z-0.4500 I0.1162 J0.7991 F#<xyVel>
G1 X4.8809 Y-0.2807 Z-0.4500 F#<xyVel>
G2 X4.5133 Y-0.9778 Z-0.4500 I-1.1799 J0.1767 F#<xyVel>
G1 X4.5133 Y-0.9778 Z-0.5000 F#<zVel>
G3 X4.8809 Y-0.2807 Z-0.5000 I-0.8123 J0.8738 F#<xyVel>
G1 X3.8162 Y-1.3453 Z-0.5000 F#<xyVel>
G2 X3.4580 Y-1.3741 Z-0.5000 I-0.2420 J0.7704 F#<xyVel>
G1 X4.9096 Y0.0776 Z-0.5000 F#<xyVel>
G3 X4.8627 Y0.3602 Z-0.5000 I-0.6426 J0.0386 F#<xyVel>
G1 X3.1753 Y-1.3272 Z-0.5000 F#<xyVel>
G2 X2.9364 Y-1.2366 Z-0.5000 I0.0790 J0.5687 F#<xyVel>
G1 X4.7721 Y0.5991 Z-0.5000 F#<xyVel>
G3 X4.6499 Y0.8064 Z-0.5000 I-0.5153 J-0.1640 F#<xyVel>
G1 X2.7291 Y-1.1144 Z-0.5000 F#<xyVel>
G2 X2.5482 Y-0.9658 Z-0.5000 I0.2351 J0.4706 F#<xyVel>
G1 X4.5013 Y0.9873 Z-0.5000 F#<xyVel>
G1 X4.3180 Y1.1335 Z-0.5000 F#<xyVel>
G1 X2.4020 Y-0.7825 Z-0.5000 F#<xyVel>
G2 X2.2849 Y-0.5700 Z-0.5000 I0.4068 J0.3627 F#<xyVel>
G1 X4.1056 Y1.2506 Z-0.5000 F#<xyVel>
G3 X3.8606 Y1.3352 Z-0.5000 I-0.3078 J-0.4942 F#<xyVel>
G1 X2.2003 Y-0.3251 Z-0.5000 F#<xyVel>
G2 X2.1615 Y-0.0345 Z-0.5000 I0.6173 J0.2305 F#<xyVel>
G1 X3.5700 Y1.3741 Z-0.5000 F#<xyVel>
G3 X3.1990 Y1.3326 Z-0.5000 I-0.0946 J-0.8334 F#<xyVel>
G1 X2.2029 Y0.3365 Z-0.5000 F#<xyVel>
G2 X3.1990 Y1.3326 Z-0.5000 I1.2925 J-0.2964 F#<xyVel>
G0 X3.1990 Y1.3326 Z#<safego>
G0 X3.1970 Y1.3407 Z#<safego>
G0 X3.1970 Y1.3407 Z-0.3000
G1 X3.1970 Y1.3407 Z-0.5000 F#<zVel>
G2 X3.3807 Y1.3741 Z-0.5000 I0.3385 J-1.3407 F#<xyVel>
G2 X3.6904 Y-1.3741 Z-0.5000 I0.1548 J-1.3741 F#<xyVel>
G2 X3.1970 Y1.3407 Z-0.5000 I-0.1548 J1.3741 F#<xyVel>
G1 X3.1970 Y1.3407 Z-0.5500 F#<zVel>
G2 X3.3807 Y1.3741 Z-0.5500 I0.3385 J-1.3407 F#<xyVel>
G2 X3.6904 Y-1.3741 Z-0.5500 I0.1548 J-1.3741 F#<xyVel>
G2 X3.1970 Y1.3407 Z-0.5500 I-0.1548 J1.3741 F#<xyVel>
G0 X3.1970 Y1.3407 Z#<safego>
G0 X3.1990 Y1.3326 Z#<safego>
G0 X3.1990 Y1.3326 Z-0.3500
G1 X3.1990 Y1.3326 Z-0.5500 F#<zVel>
G3 X2.2029 Y0.3365 Z-0.5500 I0.2964 J-1.2925 F#<xyVel>
G1 X3.1990 Y1.3326 Z-0.5500 F#<xyVel>
G2 X3.5700 Y1.3741 Z-0.5500 I0.2763 J-0.7920 F#<xyVel>
G1 X2.1615 Y-0.0345 Z-0.5500 F#<xyVel>
G3 X2.2003 Y-0.3251 Z-0.5500 I0.6561 J-0.0602 F#<xyVel>
G1 X3.8606 Y1.3352 Z-0.5500 F#<xyVel>
G2 X4.1056 Y1.2506 Z-0.5500 I-0.0629 J-0.5788 F#<xyVel>
G1 X2.2849 Y-0.5700 Z-0.5500 F#<xyVel>
G3 X2.4020 Y-0.7825 Z-0.5500 I0.5239 J0.1503 F#<xyVel>
G1 X4.3180 Y1.1335 Z-0.5500 F#<xyVel>
G1 X4.5013 Y0.9873 Z-0.5500 F#<xyVel>
G1 X2.5482 Y-0.9658 Z-0.5500 F#<xyVel>
G3 X2.7291 Y-1.1144 Z-0.5500 I0.4160 J0.3220 F#<xyVel>
G1 X4.6499 Y0.8064 Z-0.5500 F#<xyVel>
G2 X4.7721 Y0.5991 Z-0.5500 I-0.3931 J-0.3713 F#<xyVel>
G1 X2.9364 Y-1.2366 Z-0.5500 F#<xyVel>
G3 X3.1753 Y-1.3272 Z-0.5500 I0.3179 J0.4781 F#<xyVel>
G1 X4.8627 Y0.3602 Z-0.5500 F#<xyVel>
G2 X4.9096 Y0.0776 Z-0.5500 I-0.5957 J-0.2440 F#<xyVel>
G1 X3.4580 Y-1.3741 Z-0.5500 F#<xyVel>
G3 X3.8162 Y-1.3453 Z-0.5500 I0.1162 J0.7991 F#<xyVel>
G1 X4.8809 Y-0.2807 Z-0.5500 F#<xyVel>
G2 X4.5133 Y-0.9778 Z-0.5500 I-1.1799 J0.1767 F#<xyVel>
G1 X4.5133 Y-0.9778 Z-0.6000 F#<zVel>
G3 X4.8809 Y-0.2807 Z-0.6000 I-0.8123 J0.8738 F#<xyVel>
G1 X3.8162 Y-1.3453 Z-0.6000 F#<xyVel>
G2 X3.4580 Y-1.3741 Z-0.6000 I-0.2420 J0.7704 F#<xyVel>
G1 X4.9096 Y0.0776 Z-0.6000 F#<xyVel>
G3 X4.8627 Y0.3602 Z-0.6000 I-0.6426 J0.0386 F#<xyVel>
G1 X3.1753 Y-1.3272 Z-0.6000 F#<xyVel>
G2 X2.9364 Y-1.2366 Z-0.6000 I0.0790 J0.5687 F#<xyVel>
G1 X4.7721 Y0.5991 Z-0.6000 F#<xyVel>
G3 X4.6499 Y0.8064 Z-0.6000 I-0.5153 J-0.1640 F#<xyVel>
G1 X2.7291 Y-1.1144 Z-0.6000 F#<xyVel>
G2 X2.5482 Y-0.9658 Z-0.6000 I0.2351 J0.4706 F#<xyVel>
G1 X4.5013 Y0.9873 Z-0.6000 F#<xyVel>
G1 X4.3180 Y1.1335 Z-0.6000 F#<xyVel>
G1 X2.4020 Y-0.7825 Z-0.6000 F#<xyVel>
G2 X2.2849 Y-0.5700 Z-0.6000 I0.4068 J0.3627 F#<xyVel>
G1 X4.1056 Y1.2506 Z-0.6000 F#<xyVel>
G3 X3.8606 Y1.3352 Z-0.6000 I-0.3078 J-0.4942 F#<xyVel>
G1 X2.2003 Y-0.3251 Z-0.6000 F#<xyVel>
G2 X2.1615 Y-0.0345 Z-0.6000 I0.6173 J0.2305 F#<xyVel>
G1 X3.5700 Y1.3741 Z-0.6000 F#<xyVel>
G3 X3.1990 Y1.3326 Z-0.6000 I-0.0946 J-0.8334 F#<xyVel>
G1 X2.2029 Y0.3365 Z-0.6000 F#<xyVel>
G2 X3.1990 Y1.3326 Z-0.6000 I1.2925 J-0.2964 F#<xyVel>
G0 X3.1990 Y1.3326 Z#<safego>
G0 X3.1970 Y1.3407 Z#<safego>
G0 X3.1970 Y1.3407 Z-0.4000
G1 X3.1970 Y1.3407 Z-0.6000 F#<zVel>
G2 X3.3807 Y1.3741 Z-0.6000 I0.3385 J-1.3407 F#<xyVel>
G2 X3.6904 Y-1.3741 Z-0.6000 I0.1548 J-1.3741 F#<xyVel>
G2 X3.1970 Y1.3407 Z-0.6000 I-0.1548 J1.3741 F#<xyVel>
G1 X3.1970 Y1.3407 Z-0.6500 F#<zVel>
G2 X3.3807 Y1.3741 Z-0.6500 I0.3385 J-1.3407 F#<xyVel>
G2 X3.6904 Y-1.3741 Z-0.6500 I0.1548 J-1.3741 F#<xyVel>
G2 X3.1970 Y1.3407 Z-0.6500 I-0.1548 J1.3741 F#<xyVel>
G0 X3.1970 Y1.3407 Z#<safego>
G0 X3.1990 Y1.3326 Z#<safego>
G0 X3.1990 Y1.3326 Z-0.4500
G1 X3.1990 Y1.3326 Z-0.6500 F#<zVel>
G3 X2.2029 Y0.3365 Z-0.6500 I0.2964 J-1.2925 F#<xyVel>
G1 X3.1990 Y1.3326 Z-0.6500 F#<xyVel>
G2 X3.5700 Y1.3741 Z-0.6500 I0.2763 J-0.7920 F#<xyVel>
G1 X2.1615 Y-0.0345 Z-0.6500 F#<xyVel>
G3 X2.2003 Y-0.3251 Z-0.6500 I0.6561 J-0.0602 F#<xyVel>
G1 X3.8606 Y1.3352 Z-0.6500 F#<xyVel>
G2 X4.1056 Y1.2506 Z-0.6500 I-0.0629 J-0.5788 F#<xyVel>
G1 X2.2849 Y-0.5700 Z-0.6500 F#<xyVel>
G3 X2.4020 Y-0.7825 Z-0.6500 I0.5239 J0.1503 F#<xyVel>
G1 X4.3180 Y1.1335 Z-0.6500 F#<xyVel>
G1 X4.5013 Y0.9873 Z-0.6500 F#<xyVel>
G1 X2.5482 Y-0.9658 Z-0.6500 F#<xyVel>
G3 X2.7291 Y-1.1144 Z-0.6500 I0.4160 J0.3220 F#<xyVel>
G1 X4.6499 Y0.8064 Z-0.6500 F#<xyVel>
G2 X4.7721 Y0.5991 Z-0.6500 I-0.3931 J-0.3713 F#<xyVel>
G1 X2.9364 Y-1.2366 Z-0.6500 F#<xyVel>
G3 X3.1753 Y-1.3272 Z-0.6500 I0.3179 J0.4781 F#<xyVel>
G1 X4.8627 Y0.3602 Z-0.6500 F#<xyVel>
G2 X4.9096 Y0.0776 Z-0.6500 I-0.5957 J-0.2440 F#<xyVel>
G1 X3.4580 Y-1.3741 Z-0.6500 F#<xyVel>
G3 X3.8162 Y-1.3453 Z-0.6500 I0.1162 J0.7991 F#<xyVel>
G1 X4.8809 Y-0.2807 Z-0.6500 F#<xyVel>
G2 X4.5133 Y-0.9778 Z-0.6500 I-1.1799 J0.1767 F#<xyVel>
G1 X4.5133 Y-0.9778 Z-0.7000 F#<zVel>
G3 X4.8809 Y-0.2807 Z-0.7000 I-0.8123 J0.8738 F#<xyVel>
G1 X3.8162 Y-1.3453 Z-0.7000 F#<xyVel>
G2 X3.4580 Y-1.3741 Z-0.7000 I-0.2420 J0.7704 F#<xyVel>
G1 X4.9096 Y0.0776 Z-0.7000 F#<xyVel>
G3 X4.8627 Y0.3602 Z-0.7000 I-0.6426 J0.0386 F#<xyVel>
G1 X3.1753 Y-1.3272 Z-0.7000 F#<xyVel>
G2 X2.9364 Y-1.2366 Z-0.7000 I0.0790 J0.5687 F#<xyVel>
G1 X4.7721 Y0.5991 Z-0.7000 F#<xyVel>
G3 X4.6499 Y0.8064 Z-0.7000 I-0.5153 J-0.1640 F#<xyVel>
G1 X2.7291 Y-1.1144 Z-0.7000 F#<xyVel>
G2 X2.5482 Y-0.9658 Z-0.7000 I0.2351 J0.4706 F#<xyVel>
G1 X4.5013 Y0.9873 Z-0.7000 F#<xyVel>
G1 X4.3180 Y1.1335 Z-0.7000 F#<xyVel>
G1 X2.4020 Y-0.7825 Z-0.7000 F#<xyVel>
G2 X2.2849 Y-0.5700 Z-0.7000 I0.4068 J0.3627 F#<xyVel>
G1 X4.1056 Y1.2506 Z-0.7000 F#<xyVel>
G3 X3.8606 Y1.3352 Z-0.7000 I-0.3078 J-0.4942 F#<xyVel>
G1 X2.2003 Y-0.3251 Z-0.7000 F#<xyVel>
G2 X2.1615 Y-0.0345 Z-0.7000 I0.6173 J0.2305 F#<xyVel>
G1 X3.5700 Y1.3741 Z-0.7000 F#<xyVel>
G3 X3.1990 Y1.3326 Z-0.7000 I-0.0946 J-0.8334 F#<xyVel>
G1 X2.2029 Y0.3365 Z-0.7000 F#<xyVel>
G2 X3.1990 Y1.3326 Z-0.7000 I1.2925 J-0.2964 F#<xyVel>
G0 X3.1990 Y1.3326 Z#<safego>
G0 X3.1970 Y1.3407 Z#<safego>
G0 X3.1970 Y1.3407 Z-0.5000
G1 X3.1970 Y1.3407 Z-0.7000 F#<zVel>
G2 X3.3807 Y1.3741 Z-0.7000 I0.3385 J-1.3407 F#<xyVel>
G2 X3.6904 Y-1.3741 Z-0.7000 I0.1548 J-1.3741 F#<xyVel>
G2 X3.1970 Y1.3407 Z-0.7000 I-0.1548 J1.3741 F#<xyVel>
G1 X3.1970 Y1.3407 Z-0.7500 F#<zVel>
G2 X3.3807 Y1.3741 Z-0.7500 I0.3385 J-1.3407 F#<xyVel>
G2 X3.6904 Y-1.3741 Z-0.7500 I0.1548 J-1.3741 F#<xyVel>
G2 X3.1970 Y1.3407 Z-0.7500 I-0.1548 J1.3741 F#<xyVel>
G0 X3.1970 Y1.3407 Z#<safego>
G0 X3.1990 Y1.3326 Z#<safego>
G0 X3.1990 Y1.3326 Z-0.5500
G1 X3.1990 Y1.3326 Z-0.7500 F#<zVel>
G3 X2.2029 Y0.3365 Z-0.7500 I0.2964 J-1.2925 F#<xyVel>
G1 X3.1990 Y1.3326 Z-0.7500 F#<xyVel>
G2 X3.5700 Y1.3741 Z-0.7500 I0.2763 J-0.7920 F#<xyVel>
G1 X2.1615 Y-0.0345 Z-0.7500 F#<xyVel>
G3 X2.2003 Y-0.3251 Z-0.7500 I0.6561 J-0.0602 F#<xyVel>
G1 X3.8606 Y1.3352 Z-0.7500 F#<xyVel>
G2 X4.1056 Y1.2506 Z-0.7500 I-0.0629 J-0.5788 F#<xyVel>
G1 X2.2849 Y-0.5700 Z-0.7500 F#<xyVel>
G3 X2.4020 Y-0.7825 Z-0.7500 I0.5239 J0.1503 F#<xyVel>
G1 X4.3180 Y1.1335 Z-0.7500 F#<xyVel>
G1 X4.5013 Y0.9873 Z-0.7500 F#<xyVel>
G1 X2.5482 Y-0.9658 Z-0.7500 F#<xyVel>
G3 X2.7291 Y-1.1144 Z-0.7500 I0.4160 J0.3220 F#<xyVel>
G1 X4.6499 Y0.8064 Z-0.7500 F#<xyVel>
G2 X4.7721 Y0.5991 Z-0.7500 I-0.3931 J-0.3713 F#<xyVel>
G1 X2.9364 Y-1.2366 Z-0.7500 F#<xyVel>
G3 X3.1753 Y-1.3272 Z-0.7500 I0.3179 J0.4781 F#<xyVel>
G1 X4.8627 Y0.3602 Z-0.7500 F#<xyVel>
G2 X4.9096 Y0.0776 Z-0.7500 I-0.5957 J-0.2440 F#<xyVel>
G1 X3.4580 Y-1.3741 Z-0.7500 F#<xyVel>
G3 X3.8162 Y-1.3453 Z-0.7500 I0.1162 J0.7991 F#<xyVel>
G1 X4.8809 Y-0.2807 Z-0.7500 F#<xyVel>
G2 X4.5133 Y-0.9778 Z-0.7500 I-1.1799 J0.1767 F#<xyVel>
G1 X4.5133 Y-0.9778 Z-0.8000 F#<zVel>
G3 X4.8809 Y-0.2807 Z-0.8000 I-0.8123 J0.8738 F#<xyVel>
G1 X3.8162 Y-1.3453 Z-0.8000 F#<xyVel>
G2 X3.4580 Y-1.3741 Z-0.8000 I-0.2420 J0.7704 F#<xyVel>
G1 X4.9096 Y0.0776 Z-0.8000 F#<xyVel>
G3 X4.8627 Y0.3602 Z-0.8000 I-0.6426 J0.0386 F#<xyVel>
G1 X3.1753 Y-1.3272 Z-0.8000 F#<xyVel>
G2 X2.9364 Y-1.2366 Z-0.8000 I0.0790 J0.5687 F#<xyVel>
G1 X4.7721 Y0.5991 Z-0.8000 F#<xyVel>
G3 X4.6499 Y0.8064 Z-0.8000 I-0.5153 J-0.1640 F#<xyVel>
G1 X2.7291 Y-1.1144 Z-0.8000 F#<xyVel>
G2 X2.5482 Y-0.9658 Z-0.8000 I0.2351 J0.4706 F#<xyVel>
G1 X4.5013 Y0.9873 Z-0.8000 F#<xyVel>
G1 X4.3180 Y1.1335 Z-0.8000 F#<xyVel>
G1 X2.4020 Y-0.7825 Z-0.8000 F#<xyVel>
G2 X2.2849 Y-0.5700 Z-0.8000 I0.4068 J0.3627 F#<xyVel>
G1 X4.1056 Y1.2506 Z-0.8000 F#<xyVel>
G3 X3.8606 Y1.3352 Z-0.8000 I-0.3078 J-0.4942 F#<xyVel>
G1 X2.2003 Y-0.3251 Z-0.8000 F#<xyVel>
G2 X2.1615 Y-0.0345 Z-0.8000 I0.6173 J0.2305 F#<xyVel>
G1 X3.5700 Y1.3741 Z-0.8000 F#<xyVel>
G3 X3.1990 Y1.3326 Z-0.8000 I-0.0946 J-0.8334 F#<xyVel>
G1 X2.2029 Y0.3365 Z-0.8000 F#<xyVel>
G2 X3.1990 Y1.3326 Z-0.8000 I1.2925 J-0.2964 F#<xyVel>
G0 X3.1990 Y1.3326 Z#<safego>
G0 X3.1970 Y1.3407 Z#<safego>
G0 X3.1970 Y1.3407 Z-0.6000
G1 X3.1970 Y1.3407 Z-0.8000 F#<zVel>
G2 X3.3807 Y1.3741 Z-0.8000 I0.3385 J-1.3407 F#<xyVel>
G2 X3.6904 Y-1.3741 Z-0.8000 I0.1548 J-1.3741 F#<xyVel>
G2 X3.1970 Y1.3407 Z-0.8000 I-0.1548 J1.3741 F#<xyVel>
G1 X3.1970 Y1.3407 Z-0.8500 F#<zVel>
G2 X3.3807 Y1.3741 Z-0.8500 I0.3385 J-1.3407 F#<xyVel>
G2 X3.6904 Y-1.3741 Z-0.8500 I0.1548 J-1.3741 F#<xyVel>
G2 X3.1970 Y1.3407 Z-0.8500 I-0.1548 J1.3741 F#<xyVel>
G0 X3.1970 Y1.3407 Z#<safego>
G0 X3.1990 Y1.3326 Z#<safego>
G0 X3.1990 Y1.3326 Z-0.6500
G1 X3.1990 Y1.3326 Z-0.8500 F#<zVel>
G3 X2.2029 Y0.3365 Z-0.8500 I0.2964 J-1.2925 F#<xyVel>
G1 X3.1990 Y1.3326 Z-0.8500 F#<xyVel>
G2 X3.5700 Y1.3741 Z-0.8500 I0.2763 J-0.7920 F#<xyVel>
G1 X2.1615 Y-0.0345 Z-0.8500 F#<xyVel>
G3 X2.2003 Y-0.3251 Z-0.8500 I0.6561 J-0.0602 F#<xyVel>
G1 X3.8606 Y1.3352 Z-0.8500 F#<xyVel>
G2 X4.1056 Y1.2506 Z-0.8500 I-0.0629 J-0.5788 F#<xyVel>
G1 X2.2849 Y-0.5700 Z-0.8500 F#<xyVel>
G3 X2.4020 Y-0.7825 Z-0.8500 I0.5239 J0.1503 F#<xyVel>
G1 X4.3180 Y1.1335 Z-0.8500 F#<xyVel>
G1 X4.5013 Y0.9873 Z-0.8500 F#<xyVel>
G1 X2.5482 Y-0.9658 Z-0.8500 F#<xyVel>
G3 X2.7291 Y-1.1144 Z-0.8500 I0.4160 J0.3220 F#<xyVel>
G1 X4.6499 Y0.8064 Z-0.8500 F#<xyVel>
G2 X4.7721 Y0.5991 Z-0.8500 I-0.3931 J-0.3713 F#<xyVel>
G1 X2.9364 Y-1.2366 Z-0.8500 F#<xyVel>
G3 X3.1753 Y-1.3272 Z-0.8500 I0.3179 J0.4781 F#<xyVel>
G1 X4.8627 Y0.3602 Z-0.8500 F#<xyVel>
G2 X4.9096 Y0.0776 Z-0.8500 I-0.5957 J-0.2440 F#<xyVel>
G1 X3.4580 Y-1.3741 Z-0.8500 F#<xyVel>
G3 X3.8162 Y-1.3453 Z-0.8500 I0.1162 J0.7991 F#<xyVel>
G1 X4.8809 Y-0.2807 Z-0.8500 F#<xyVel>
G2 X4.5133 Y-0.9778 Z-0.8500 I-1.1799 J0.1767 F#<xyVel>
G1 X4.5133 Y-0.9778 Z-0.9000 F#<zVel>
G3 X4.8809 Y-0.2807 Z-0.9000 I-0.8123 J0.8738 F#<xyVel>
G1 X3.8162 Y-1.3453 Z-0.9000 F#<xyVel>
G2 X3.4580 Y-1.3741 Z-0.9000 I-0.2420 J0.7704 F#<xyVel>
G1 X4.9096 Y0.0776 Z-0.9000 F#<xyVel>
G3 X4.8627 Y0.3602 Z-0.9000 I-0.6426 J0.0386 F#<xyVel>
G1 X3.1753 Y-1.3272 Z-0.9000 F#<xyVel>
G2 X2.9364 Y-1.2366 Z-0.9000 I0.0790 J0.5687 F#<xyVel>
G1 X4.7721 Y0.5991 Z-0.9000 F#<xyVel>
G3 X4.6499 Y0.8064 Z-0.9000 I-0.5153 J-0.1640 F#<xyVel>
G1 X2.7291 Y-1.1144 Z-0.9000 F#<xyVel>
G2 X2.5482 Y-0.9658 Z-0.9000 I0.2351 J0.4706 F#<xyVel>
G1 X4.5013 Y0.9873 Z-0.9000 F#<xyVel>
G1 X4.3180 Y1.1335 Z-0.9000 F#<xyVel>
G1 X2.4020 Y-0.7825 Z-0.9000 F#<xyVel>
G2 X2.2849 Y-0.5700 Z-0.9000 I0.4068 J0.3627 F#<xyVel>
G1 X4.1056 Y1.2506 Z-0.9000 F#<xyVel>
G3 X3.8606 Y1.3352 Z-0.9000 I-0.3078 J-0.4942 F#<xyVel>
G1 X2.2003 Y-0.3251 Z-0.9000 F#<xyVel>
G2 X2.1615 Y-0.0345 Z-0.9000 I0.6173 J0.2305 F#<xyVel>
G1 X3.5700 Y1.3741 Z-0.9000 F#<xyVel>
G3 X3.1990 Y1.3326 Z-0.9000 I-0.0946 J-0.8334 F#<xyVel>
G1 X2.2029 Y0.3365 Z-0.9000 F#<xyVel>
G2 X3.1990 Y1.3326 Z-0.9000 I1.2925 J-0.2964 F#<xyVel>
G0 X3.1990 Y1.3326 Z#<safego>
G0 X3.1970 Y1.3407 Z#<safego>
G0 X3.1970 Y1.3407 Z-0.7000
G1 X3.1970 Y1.3407 Z-0.9000 F#<zVel>
G2 X3.3807 Y1.3741 Z-0.9000 I0.3385 J-1.3407 F#<xyVel>
G2 X3.6904 Y-1.3741 Z-0.9000 I0.1548 J-1.3741 F#<xyVel>
G2 X3.1970 Y1.3407 Z-0.9000 I-0.1548 J1.3741 F#<xyVel>
G1 X3.1970 Y1.3407 Z-0.9500 F#<zVel>
G2 X3.3807 Y1.3741 Z-0.9500 I0.3385 J-1.3407 F#<xyVel>
G2 X3.6904 Y-1.3741 Z-0.9500 I0.1548 J-1.3741 F#<xyVel>
G2 X3.1970 Y1.3407 Z-0.9500 I-0.1548 J1.3741 F#<xyVel>
G0 X3.1970 Y1.3407 Z#<safego>
G0 X3.1990 Y1.3326 Z#<safego>
G0 X3.1990 Y1.3326 Z-0.7500
G1 X3.1990 Y1.3326 Z-0.9500 F#<zVel>
G3 X2.2029 Y0.3365 Z-0.9500 I0.2964 J-1.2925 F#<xyVel>
G1 X3.1990 Y1.3326 Z-0.9500 F#<xyVel>
G2 X3.5700 Y1.3741 Z-0.9500 I0.2763 J-0.7920 F#<xyVel>
G1 X2.1615 Y-0.0345 Z-0.9500 F#<xyVel>
G3 X2.2003 Y-0.3251 Z-0.9500 I0.6561 J-0.0602 F#<xyVel>
G1 X3.8606 Y1.3352 Z-0.9500 F#<xyVel>
G2 X4.1056 Y1.2506 Z-0.9500 I-0.0629 J-0.5788 F#<xyVel>
G1 X2.2849 Y-0.5700 Z-0.9500 F#<xyVel>
G3 X2.4020 Y-0.7825 Z-0.9500 I0.5239 J0.1503 F#<xyVel>
G1 X4.3180 Y1.1335 Z-0.9500 F#<xyVel>
G1 X4.5013 Y0.9873 Z-0.9500 F#<xyVel>
G1 X2.5482 Y-0.9658 Z-0.9500 F#<xyVel>
G3 X2.7291 Y-1.1144 Z-0.9500 I0.4160 J0.3220 F#<xyVel>
G1 X4.6499 Y0.8064 Z-0.9500 F#<xyVel>
G2 X4.7721 Y0.5991 Z-0.9500 I-0.3931 J-0.3713 F#<xyVel>
G1 X2.9364 Y-1.2366 Z-0.9500 F#<xyVel>
G3 X3.1753 Y-1.3272 Z-0.9500 I0.3179 J0.4781 F#<xyVel>
G1 X4.8627 Y0.3602 Z-0.9500 F#<xyVel>
G2 X4.9096 Y0.0776 Z-0.9500 I-0.5957 J-0.2440 F#<xyVel>
G1 X3.4580 Y-1.3741 Z-0.9500 F#<xyVel>
G3 X3.8162 Y-1.3453 Z-0.9500 I0.1162 J0.7991 F#<xyVel>
G1 X4.8809 Y-0.2807 Z-0.9500 F#<xyVel>
G2 X4.5133 Y-0.9778 Z-0.9500 I-1.1799 J0.1767 F#<xyVel>
G1 X4.5133 Y-0.9778 Z-1.0000 F#<zVel>
G3 X4.8809 Y-0.2807 Z-1.0000 I-0.8123 J0.8738 F#<xyVel>
G1 X3.8162 Y-1.3453 Z-1.0000 F#<xyVel>
G2 X3.4580 Y-1.3741 Z-1.0000 I-0.2420 J0.7704 F#<xyVel>
G1 X4.9096 Y0.0776 Z-1.0000 F#<xyVel>
G3 X4.8627 Y0.3602 Z-1.0000 I-0.6426 J0.0386 F#<xyVel>
G1 X3.1753 Y-1.3272 Z-1.0000 F#<xyVel>
G2 X2.9364 Y-1.2366 Z-1.0000 I0.0790 J0.5687 F#<xyVel>
G1 X4.7721 Y0.5991 Z-1.0000 F#<xyVel>
G3 X4.6499 Y0.8064 Z-1.0000 I-0.5153 J-0.1640 F#<xyVel>
G1 X2.7291 Y-1.1144 Z-1.0000 F#<xyVel>
G2 X2.5482 Y-0.9658 Z-1.0000 I0.2351 J0.4706 F#<xyVel>
G1 X4.5013 Y0.9873 Z-1.0000 F#<xyVel>
G1 X4.3180 Y1.1335 Z-1.0000 F#<xyVel>
G1 X2.4020 Y-0.7825 Z-1.0000 F#<xyVel>
G2 X2.2849 Y-0.5700 Z-1.0000 I0.4068 J0.3627 F#<xyVel>
G1 X4.1056 Y1.2506 Z-1.0000 F#<xyVel>
G3 X3.8606 Y1.3352 Z-1.0000 I-0.3078 J-0.4942 F#<xyVel>
G1 X2.2003 Y-0.3251 Z-1.0000 F#<xyVel>
G2 X2.1615 Y-0.0345 Z-1.0000 I0.6173 J0.2305 F#<xyVel>
G1 X3.5700 Y1.3741 Z-1.0000 F#<xyVel>
G3 X3.1990 Y1.3326 Z-1.0000 I-0.0946 J-0.8334 F#<xyVel>
G1 X2.2029 Y0.3365 Z-1.0000 F#<xyVel>
G2 X3.1990 Y1.3326 Z-1.0000 I1.2925 J-0.2964 F#<xyVel>
G0 X3.1990 Y1.3326 Z#<safego>
G0 X3.1970 Y1.3407 Z#<safego>
G0 X3.1970 Y1.3407 Z-0.8000
G1 X3.1970 Y1.3407 Z-1.0000 F#<zVel>
G2 X3.3807 Y1.3741 Z-1.0000 I0.3385 J-1.3407 F#<xyVel>
G2 X3.6904 Y-1.3741 Z-1.0000 I0.1548 J-1.3741 F#<xyVel>
G2 X3.1970 Y1.3407 Z-1.0000 I-0.1548 J1.3741 F#<xyVel>
G1 X3.1970 Y1.3407 Z-1.0500 F#<zVel>
G2 X3.3807 Y1.3741 Z-1.0500 I0.3385 J-1.3407 F#<xyVel>
G2 X3.6904 Y-1.3741 Z-1.0500 I0.1548 J-1.3741 F#<xyVel>
G2 X3.1970 Y1.3407 Z-1.0500 I-0.1548 J1.3741 F#<xyVel>
G0 X3.1970 Y1.3407 Z#<safego>
G0 X3.1990 Y1.3326 Z#<safego>
G0 X3.1990 Y1.3326 Z-0.8500
G1 X3.1990 Y1.3326 Z-1.0500 F#<zVel>
G3 X2.2029 Y0.3365 Z-1.0500 I0.2964 J-1.2925 F#<xyVel>
G1 X3.1990 Y1.3326 Z-1.0500 F#<xyVel>
G2 X3.5700 Y1.3741 Z-1.0500 I0.2763 J-0.7920 F#<xyVel>
G1 X2.1615 Y-0.0345 Z-1.0500 F#<xyVel>
G3 X2.2003 Y-0.3251 Z-1.0500 I0.6561 J-0.0602 F#<xyVel>
G1 X3.8606 Y1.3352 Z-1.0500 F#<xyVel>
G2 X4.1056 Y1.2506 Z-1.0500 I-0.0629 J-0.5788 F#<xyVel>
G1 X2.2849 Y-0.5700 Z-1.0500 F#<xyVel>
G3 X2.4020 Y-0.7825 Z-1.0500 I0.5239 J0.1503 F#<xyVel>
G1 X4.3180 Y1.1335 Z-1.0500 F#<xyVel>
G1 X4.5013 Y0.9873 Z-1.0500 F#<xyVel>
G1 X2.5482 Y-0.9658 Z-1.0500 F#<xyVel>
G3 X2.7291 Y-1.1144 Z-1.0500 I0.4160 J0.3220 F#<xyVel>
G1 X4.6499 Y0.8064 Z-1.0500 F#<xyVel>
G2 X4.7721 Y0.5991 Z-1.0500 I-0.3931 J-0.3713 F#<xyVel>
G1 X2.9364 Y-1.2366 Z-1.0500 F#<xyVel>
G3 X3.1753 Y-1.3272 Z-1.0500 I0.3179 J0.4781 F#<xyVel>
G1 X4.8627 Y0.3602 Z-1.0500 F#<xyVel>
G2 X4.9096 Y0.0776 Z-1.0500 I-0.5957 J-0.2440 F#<xyVel>
G1 X3.4580 Y-1.3741 Z-1.0500 F#<xyVel>
G3 X3.8162 Y-1.3453 Z-1.0500 I0.1162 J0.7991 F#<xyVel>
G1 X4.8809 Y-0.2807 Z-1.0500 F#<xyVel>
G2 X4.5133 Y-0.9778 Z-1.0500 I-1.1799 J0.1767 F#<xyVel>
G1 X4.5133 Y-0.9778 Z-1.1000 F#<zVel>
G3 X4.8809 Y-0.2807 Z-1.1000 I-0.8123 J0.8738 F#<xyVel>
G1 X3.8162 Y-1.3453 Z-1.1000 F#<xyVel>
G2 X3.4580 Y-1.3741 Z-1.1000 I-0.2420 J0.7704 F#<xyVel>
G1 X4.9096 Y0.0776 Z-1.1000 F#<xyVel>
G3 X4.8627 Y0.3602 Z-1.1000 I-0.6426 J0.0386 F#<xyVel>
G1 X3.1753 Y-1.3272 Z-1.1000 F#<xyVel>
G2 X2.9364 Y-1.2366 Z-1.1000 I0.0790 J0.5687 F#<xyVel>
G1 X4.7721 Y0.5991 Z-1.1000 F#<xyVel>
G3 X4.6499 Y0.8064 Z-1.1000 I-0.5153 J-0.1640 F#<xyVel>
G1 X2.7291 Y-1.1144 Z-1.1000 F#<xyVel>
G2 X2.5482 Y-0.9658 Z-1.1000 I0.2351 J0.4706 F#<xyVel>
G1 X4.5013 Y0.9873 Z-1.1000 F#<xyVel>
G1 X4.3180 Y1.1335 Z-1.1000 F#<xyVel>
G1 X2.4020 Y-0.7825 Z-1.1000 F#<xyVel>
G2 X2.2849 Y-0.5700 Z-1.1000 I0.4068 J0.3627 F#<xyVel>
G1 X4.1056 Y1.2506 Z-1.1000 F#<xyVel>
G3 X3.8606 Y1.3352 Z-1.1000 I-0.3078 J-0.4942 F#<xyVel>
G1 X2.2003 Y-0.3251 Z-1.1000 F#<xyVel>
G2 X2.1615 Y-0.0345 Z-1.1000 I0.6173 J0.2305 F#<xyVel>
G1 X3.5700 Y1.3741 Z-1.1000 F#<xyVel>
G3 X3.1990 Y1.3326 Z-1.1000 I-0.0946 J-0.8334 F#<xyVel>
G1 X2.2029 Y0.3365 Z-1.1000 F#<xyVel>
G2 X3.1990 Y1.3326 Z-1.1000 I1.2925 J-0.2964 F#<xyVel>
G0 X3.1990 Y1.3326 Z#<safego>
G0 X3.1970 Y1.3407 Z#<safego>
G0 X3.1970 Y1.3407 Z-0.9000
G1 X3.1970 Y1.3407 Z-1.1000 F#<zVel>
G2 X3.3807 Y1.3741 Z-1.1000 I0.3385 J-1.3407 F#<xyVel>
G2 X3.6904 Y-1.3741 Z-1.1000 I0.1548 J-1.3741 F#<xyVel>
G2 X3.1970 Y1.3407 Z-1.1000 I-0.1548 J1.3741 F#<xyVel>
G1 X3.1970 Y1.3407 Z-1.1500 F#<zVel>
G2 X3.3807 Y1.3741 Z-1.1500 I0.3385 J-1.3407 F#<xyVel>
G2 X3.6904 Y-1.3741 Z-1.1500 I0.1548 J-1.3741 F#<xyVel>
G2 X3.1970 Y1.3407 Z-1.1500 I-0.1548 J1.3741 F#<xyVel>
G0 X3.1970 Y1.3407 Z#<safego>
G0 X3.1990 Y1.3326 Z#<safego>
G0 X3.1990 Y1.3326 Z-0.9500
G1 X3.1990 Y1.3326 Z-1.1500 F#<zVel>
G3 X2.2029 Y0.3365 Z-1.1500 I0.2964 J-1.2925 F#<xyVel>
G1 X3.1990 Y1.3326 Z-1.1500 F#<xyVel>
G2 X3.5700 Y1.3741 Z-1.1500 I0.2763 J-0.7920 F#<xyVel>
G1 X2.1615 Y-0.0345 Z-1.1500 F#<xyVel>
G3 X2.2003 Y-0.3251 Z-1.1500 I0.6561 J-0.0602 F#<xyVel>
G1 X3.8606 Y1.3352 Z-1.1500 F#<xyVel>
G2 X4.1056 Y1.2506 Z-1.1500 I-0.0629 J-0.5788 F#<xyVel>
G1 X2.2849 Y-0.5700 Z-1.1500 F#<xyVel>
G3 X2.4020 Y-0.7825 Z-1.1500 I0.5239 J0.1503 F#<xyVel>
G1 X4.3180 Y1.1335 Z-1.1500 F#<xyVel>
G1 X4.5013 Y0.9873 Z-1.1500 F#<xyVel>
G1 X2.5482 Y-0.9658 Z-1.1500 F#<xyVel>
G3 X2.7291 Y-1.1144 Z-1.1500 I0.4160 J0.3220 F#<xyVel>
G1 X4.6499 Y0.8064 Z-1.1500 F#<xyVel>
G2 X4.7721 Y0.5991 Z-1.1500 I-0.3931 J-0.3713 F#<xyVel>
G1 X2.9364 Y-1.2366 Z-1.1500 F#<xyVel>
G3 X3.1753 Y-1.3272 Z-1.1500 I0.3179 J0.4781 F#<xyVel>
G1 X4.8627 Y0.3602 Z-1.1500 F#<xyVel>
G2 X4.9096 Y0.0776 Z-1.1500 I-0.5957 J-0.2440 F#<xyVel>
G1 X3.4580 Y-1.3741 Z-1.1500 F#<xyVel>
G3 X3.8162 Y-1.3453 Z-1.1500 I0.1162 J0.7991 F#<xyVel>
G1 X4.8809 Y-0.2807 Z-1.1500 F#<xyVel>
G2 X4.5133 Y-0.9778 Z-1.1500 I-1.1799 J0.1767 F#<xyVel>
G1 X4.5133 Y-0.9778 Z-1.2000 F#<zVel>
G3 X4.8809 Y-0.2807 Z-1.2000 I-0.8123 J0.8738 F#<xyVel>
G1 X3.8162 Y-1.3453 Z-1.2000 F#<xyVel>
G2 X3.4580 Y-1.3741 Z-1.2000 I-0.2420 J0.7704 F#<xyVel>
G1 X4.9096 Y0.0776 Z-1.2000 F#<xyVel>
G3 X4.8627 Y0.3602 Z-1.2000 I-0.6426 J0.0386 F#<xyVel>
G1 X3.1753 Y-1.3272 Z-1.2000 F#<xyVel>
G2 X2.9364 Y-1.2366 Z-1.2000 I0.0790 J0.5687 F#<xyVel>
G1 X4.7721 Y0.5991 Z-1.2000 F#<xyVel>
G3 X4.6499 Y0.8064 Z-1.2000 I-0.5153 J-0.1640 F#<xyVel>
G1 X2.7291 Y-1.1144 Z-1.2000 F#<xyVel>
G2 X2.5482 Y-0.9658 Z-1.2000 I0.2351 J0.4706 F#<xyVel>
G1 X4.5013 Y0.9873 Z-1.2000 F#<xyVel>
G1 X4.3180 Y1.1335 Z-1.2000 F#<xyVel>
G1 X2.4020 Y-0.7825 Z-1.2000 F#<xyVel>
G2 X2.2849 Y-0.5700 Z-1.2000 I0.4068 J0.3627 F#<xyVel>
G1 X4.1056 Y1.2506 Z-1.2000 F#<xyVel>
G3 X3.8606 Y1.3352 Z-1.2000 I-0.3078 J-0.4942 F#<xyVel>
G1 X2.2003 Y-0.3251 Z-1.2000 F#<xyVel>
G2 X2.1615 Y-0.0345 Z-1.2000 I0.6173 J0.2305 F#<xyVel>
G1 X3.5700 Y1.3741 Z-1.2000 F#<xyVel>
G3 X3.1990 Y1.3326 Z-1.2000 I-0.0946 J-0.8334 F#<xyVel>
G1 X2.2029 Y0.3365 Z-1.2000 F#<xyVel>
G2 X3.1990 Y1.3326 Z-1.2000 I1.2925 J-0.2964 F#<xyVel>
G0 X3.1990 Y1.3326 Z#<safego>
G0 X3.1970 Y1.3407 Z#<safego>
G0 X3.1970 Y1.3407 Z-1.0000
G1 X3.1970 Y1.3407 Z-1.2000 F#<zVel>
G2 X3.3807 Y1.3741 Z-1.2000 I0.3385 J-1.3407 F#<xyVel>
G2 X3.6904 Y-1.3741 Z-1.2000 I0.1548 J-1.3741 F#<xyVel>
G2 X3.1970 Y1.3407 Z-1.2000 I-0.1548 J1.3741 F#<xyVel>
G1 X3.1970 Y1.3407 Z-1.2500 F#<zVel>
G2 X3.3807 Y1.3741 Z-1.2500 I0.3385 J-1.3407 F#<xyVel>
G2 X3.6904 Y-1.3741 Z-1.2500 I0.1548 J-1.3741 F#<xyVel>
G2 X3.1970 Y1.3407 Z-1.2500 I-0.1548 J1.3741 F#<xyVel>
G0 X3.1970 Y1.3407 Z#<safego>
G0 X3.1990 Y1.3326 Z#<safego>
G0 X3.1990 Y1.3326 Z-1.0500
G1 X3.1990 Y1.3326 Z-1.2500 F#<zVel>
G3 X2.2029 Y0.3365 Z-1.2500 I0.2964 J-1.2925 F#<xyVel>
G1 X3.1990 Y1.3326 Z-1.2500 F#<xyVel>
G2 X3.5700 Y1.3741 Z-1.2500 I0.2763 J-0.7920 F#<xyVel>
G1 X2.1615 Y-0.0345 Z-1.2500 F#<xyVel>
G3 X2.2003 Y-0.3251 Z-1.2500 I0.6561 J-0.0602 F#<xyVel>
G1 X3.8606 Y1.3352 Z-1.2500 F#<xyVel>
G2 X4.1056 Y1.2506 Z-1.2500 I-0.0629 J-0.5788 F#<xyVel>
G1 X2.2849 Y-0.5700 Z-1.2500 F#<xyVel>
G3 X2.4020 Y-0.7825 Z-1.2500 I0.5239 J0.1503 F#<xyVel>
G1 X4.3180 Y1.1335 Z-1.2500 F#<xyVel>
G1 X4.5013 Y0.9873 Z-1.2500 F#<xyVel>
G1 X2.5482 Y-0.9658 Z-1.2500 F#<xyVel>
G3 X2.7291 Y-1.1144 Z-1.2500 I0.4160 J0.3220 F#<xyVel>
G1 X4.6499 Y0.8064 Z-1.2500 F#<xyVel>
G2 X4.7721 Y0.5991 Z-1.2500 I-0.3931 J-0.3713 F#<xyVel>
G1 X2.9364 Y-1.2366 Z-1.2500 F#<xyVel>
G3 X3.1753 Y-1.3272 Z-1.2500 I0.3179 J0.4781 F#<xyVel>
G1 X4.8627 Y0.3602 Z-1.2500 F#<xyVel>
G2 X4.9096 Y0.0776 Z-1.2500 I-0.5957 J-0.2440 F#<xyVel>
G1 X3.4580 Y-1.3741 Z-1.2500 F#<xyVel>
G3 X3.8162 Y-1.3453 Z-1.2500 I0.1162 J0.7991 F#<xyVel>
G1 X4.8809 Y-0.2807 Z-1.2500 F#<xyVel>
G2 X4.5133 Y-0.9778 Z-1.2500 I-1.1799 J0.1767 F#<xyVel>
G1 X4.5133 Y-0.9778 Z-1.2800 F#<zVel>
G3 X4.8809 Y-0.2807 Z-1.2800 I-0.8123 J0.8738 F#<xyVel>
G1 X3.8162 Y-1.3453 Z-1.2800 F#<xyVel>
G2 X3.4580 Y-1.3741 Z-1.2800 I-0.2420 J0.7704 F#<xyVel>
G1 X4.9096 Y0.0776 Z-1.2800 F#<xyVel>
G3 X4.8627 Y0.3602 Z-1.2800 I-0.6426 J0.0386 F#<xyVel>
G1 X3.1753 Y-1.3272 Z-1.2800 F#<xyVel>
G2 X2.9364 Y-1.2366 Z-1.2800 I0.0790 J0.5687 F#<xyVel>
G1 X4.7721 Y0.5991 Z-1.2800 F#<xyVel>
G3 X4.6499 Y0.8064 Z-1.2800 I-0.5153 J-0.1640 F#<xyVel>
G1 X2.7291 Y-1.1144 Z-1.2800 F#<xyVel>
G2 X2.5482 Y-0.9658 Z-1.2800 I0.2351 J0.4706 F#<xyVel>
G1 X4.5013 Y0.9873 Z-1.2800 F#<xyVel>
G1 X4.3180 Y1.1335 Z-1.2800 F#<xyVel>
G1 X2.4020 Y-0.7825 Z-1.2800 F#<xyVel>
G2 X2.2849 Y-0.5700 Z-1.2800 I0.4068 J0.3627 F#<xyVel>
G1 X4.1056 Y1.2506 Z-1.2800 F#<xyVel>
G3 X3.8606 Y1.3352 Z-1.2800 I-0.3078 J-0.4942 F#<xyVel>
G1 X2.2003 Y-0.3251 Z-1.2800 F#<xyVel>
G2 X2.1615 Y-0.0345 Z-1.2800 I0.6173 J0.2305 F#<xyVel>
G1 X3.5700 Y1.3741 Z-1.2800 F#<xyVel>
G3 X3.1990 Y1.3326 Z-1.2800 I-0.0946 J-0.8334 F#<xyVel>
G1 X2.2029 Y0.3365 Z-1.2800 F#<xyVel>
G2 X3.1990 Y1.3326 Z-1.2800 I1.2925 J-0.2964 F#<xyVel>
G0 X3.1990 Y1.3326 Z#<safego>
G0 X3.1970 Y1.3407 Z#<safego>
G0 X3.1970 Y1.3407 Z-1.0800
G1 X3.1970 Y1.3407 Z-1.2800 F#<zVel>
G2 X3.3807 Y1.3741 Z-1.2800 I0.3385 J-1.3407 F#<xyVel>
G2 X3.6904 Y-1.3741 Z-1.2800 I0.1548 J-1.3741 F#<xyVel>
G2 X3.1970 Y1.3407 Z-1.2800 I-0.1548 J1.3741 F#<xyVel>
G1 X3.1970 Y1.3407 Z-1.3000 F#<zVel>
G2 X3.3807 Y1.3741 Z-1.3000 I0.3385 J-1.3407 F#<xyVel>
G2 X3.6904 Y-1.3741 Z-1.3000 I0.1548 J-1.3741 F#<xyVel>
G2 X3.1970 Y1.3407 Z-1.3000 I-0.1548 J1.3741 F#<xyVel>
G0 X3.1970 Y1.3407 Z#<safego>
G0 X3.1990 Y1.3326 Z#<safego>
G0 X3.1990 Y1.3326 Z-1.1000
G1 X3.1990 Y1.3326 Z-1.3000 F#<zVel>
G3 X2.2029 Y0.3365 Z-1.3000 I0.2964 J-1.2925 F#<xyVel>
G1 X3.1990 Y1.3326 Z-1.3000 F#<xyVel>
G2 X3.5700 Y1.3741 Z-1.3000 I0.2763 J-0.7920 F#<xyVel>
G1 X2.1615 Y-0.0345 Z-1.3000 F#<xyVel>
G3 X2.2003 Y-0.3251 Z-1.3000 I0.6561 J-0.0602 F#<xyVel>
G1 X3.8606 Y1.3352 Z-1.3000 F#<xyVel>
G2 X4.1056 Y1.2506 Z-1.3000 I-0.0629 J-0.5788 F#<xyVel>
G1 X2.2849 Y-0.5700 Z-1.3000 F#<xyVel>
G3 X2.4020 Y-0.7825 Z-1.3000 I0.5239 J0.1503 F#<xyVel>
G1 X4.3180 Y1.1335 Z-1.3000 F#<xyVel>
G1 X4.5013 Y0.9873 Z-1.3000 F#<xyVel>
G1 X2.5482 Y-0.9658 Z-1.3000 F#<xyVel>
G3 X2.7291 Y-1.1144 Z-1.3000 I0.4160 J0.3220 F#<xyVel>
G1 X4.6499 Y0.8064 Z-1.3000 F#<xyVel>
G2 X4.7721 Y0.5991 Z-1.3000 I-0.3931 J-0.3713 F#<xyVel>
G1 X2.9364 Y-1.2366 Z-1.3000 F#<xyVel>
G3 X3.1753 Y-1.3272 Z-1.3000 I0.3179 J0.4781 F#<xyVel>
G1 X4.8627 Y0.3602 Z-1.3000 F#<xyVel>
G2 X4.9096 Y0.0776 Z-1.3000 I-0.5957 J-0.2440 F#<xyVel>
G1 X3.4580 Y-1.3741 Z-1.3000 F#<xyVel>
G3 X3.8162 Y-1.3453 Z-1.3000 I0.1162 J0.7991 F#<xyVel>
G1 X4.8809 Y-0.2807 Z-1.3000 F#<xyVel>
G2 X4.5133 Y-0.9778 Z-1.3000 I-1.1799 J0.1767 F#<xyVel>
G0 Z#<safego>
(finish operation: Pocket_Shape_Cylinder)


;*** End Cylinder Insert

(MSG, About to start Drilling Op)

o100 call


; *** Begin Drill Op Insert
(begin operation: Drilling)
(machine: not set, in/min)
(Drilling)
(Begin Drilling)
G0 X6.0000 Y0.0000 Z#<safego>
G1 X6.0000 Y0.0000 Z#<drillDepth> F#<zVel> 
G0 X6.0000 Y0.0000 Z#<safego>
(finish operation: Drilling)
; *** End Drill Op Insert

(begin postamble)
G00 G53 X0 Y0 Z0  M2  ;that's all;
%
